school/img/country/SA.svg

<svg width="13" height="12" viewBox="0 0 13 12" fill="none" xmlns="http://www.w3.org/2000/svg">
<rect width="13" height="12" rx="2" fill="white"/>
<mask id="mask0" mask-type="alpha" maskUnits="userSpaceOnUse" x="0" y="0" width="13" height="12">
<rect width="13" height="12" rx="2" fill="white"/>
</mask>
<g mask="url(#mask0)">
<rect width="13" height="12" fill="#128C4B"/>
<path fill-rule="evenodd" clip-rule="evenodd" d="M3.09521 7.20001H8.0476V6.73705C8.0476 6.41915 8.39964 6.22749 8.66664 6.40001V6.40001V7.20001H9.37141C9.66596 7.20001 9.90474 7.43879 9.90474 7.73335V7.73335C9.90474 8.32245 9.42718 8.80001 8.83807 8.80001H8.66664C8.32475 8.80001 8.0476 8.52286 8.0476 8.18096V8.00001H4.04134C3.83504 8.00001 3.64035 7.9045 3.5141 7.74133L3.09521 7.20001Z" fill="white"/>
<path fill-rule="evenodd" clip-rule="evenodd" d="M3.09521 4.91389C3.09521 4.84005 3.11973 4.76829 3.16492 4.7099L3.24689 4.60398C3.33983 4.48386 3.33983 4.3161 3.24689 4.19599L3.16492 4.09007C3.11973 4.03167 3.09521 3.95992 3.09521 3.88607V3.50951C3.09521 3.33856 3.23379 3.19998 3.40474 3.19998H3.5884C3.65791 3.19998 3.71426 3.25633 3.71426 3.32585V3.32585C3.71426 3.46524 3.90722 3.50126 3.95752 3.37127L3.98867 3.29074C4.00984 3.23604 4.06245 3.19998 4.1211 3.19998H4.75236C4.86281 3.19998 4.95236 3.28952 4.95236 3.39998V3.39998C4.95236 3.51044 4.86281 3.59998 4.75236 3.59998H4.53331C4.42285 3.59998 4.33331 3.68952 4.33331 3.79998V3.79998C4.33331 3.91044 4.42285 3.99998 4.53331 3.99998H4.64283C4.81378 3.99998 4.95236 4.13856 4.95236 4.30951V5.29046C4.95236 5.4614 4.81378 5.59998 4.64283 5.59998V5.59998C4.47189 5.59998 4.33331 5.4614 4.33331 5.29046V4.95474C4.33331 4.86927 4.4026 4.79998 4.48807 4.79998V4.79998C4.57354 4.79998 4.64283 4.73069 4.64283 4.64522V4.59998C4.64283 4.48952 4.55329 4.39998 4.44283 4.39998H4.33331C4.16237 4.39998 4.02379 4.53856 4.02379 4.70951V5.44522C4.02379 5.53069 3.9545 5.59998 3.86902 5.59998V5.59998C3.78355 5.59998 3.71426 5.53069 3.71426 5.44522V4.95474C3.71426 4.86927 3.64497 4.79998 3.5595 4.79998V4.79998C3.47403 4.79998 3.40474 4.86927 3.40474 4.95474V5.44522C3.40474 5.53069 3.33545 5.59998 3.24998 5.59998V5.59998C3.1645 5.59998 3.09521 5.53069 3.09521 5.44522V4.91389Z" fill="white"/>
<path fill-rule="evenodd" clip-rule="evenodd" d="M8.04761 4.91389C8.04761 4.84005 8.07213 4.76829 8.11732 4.7099L8.19928 4.60398C8.29222 4.48386 8.29222 4.3161 8.19928 4.19599L8.11732 4.09007C8.07213 4.03167 8.04761 3.95992 8.04761 3.88607V3.50951C8.04761 3.33856 8.18619 3.19998 8.35713 3.19998H8.54079C8.6103 3.19998 8.66665 3.25633 8.66665 3.32585V3.32585C8.66665 3.46524 8.85961 3.50126 8.90991 3.37127L8.94107 3.29074C8.96223 3.23604 9.01484 3.19998 9.07349 3.19998H9.70475C9.81521 3.19998 9.90475 3.28952 9.90475 3.39998V3.39998C9.90475 3.51044 9.81521 3.59998 9.70475 3.59998H9.4857C9.37525 3.59998 9.2857 3.68952 9.2857 3.79998V3.79998C9.2857 3.91044 9.37525 3.99998 9.4857 3.99998H9.59523C9.76617 3.99998 9.90475 4.13856 9.90475 4.30951V5.29046C9.90475 5.4614 9.76617 5.59998 9.59523 5.59998V5.59998C9.42428 5.59998 9.2857 5.4614 9.2857 5.29046V4.95474C9.2857 4.86927 9.35499 4.79998 9.44046 4.79998V4.79998C9.52594 4.79998 9.59523 4.73069 9.59523 4.64522V4.59998C9.59523 4.48952 9.50568 4.39998 9.39523 4.39998H9.2857C9.11476 4.39998 8.97618 4.53856 8.97618 4.70951V5.44522C8.97618 5.53069 8.90689 5.59998 8.82142 5.59998V5.59998C8.73594 5.59998 8.66665 5.53069 8.66665 5.44522V4.95474C8.66665 4.86927 8.59737 4.79998 8.51189 4.79998V4.79998C8.42642 4.79998 8.35713 4.86927 8.35713 4.95474V5.44522C8.35713 5.53069 8.28784 5.59998 8.20237 5.59998V5.59998C8.1169 5.59998 8.04761 5.53069 8.04761 5.44522V4.91389Z" fill="white"/>
<path fill-rule="evenodd" clip-rule="evenodd" d="M7.42855 3.79811C7.42855 3.9096 7.38019 4.06248 7.31681 4.14439L7.23078 4.25557C7.16906 4.33533 7.16739 4.46248 7.23078 4.54439L7.31681 4.65557C7.37852 4.73533 7.42855 4.8856 7.42855 5.00186V5.39811C7.42855 5.5096 7.36231 5.59998 7.27234 5.59998H6.96572C6.87944 5.59998 6.80951 5.51437 6.80951 5.39811V5.00186C6.80951 4.89036 6.78094 4.87381 6.73772 4.98553L6.57177 5.41443C6.53212 5.51691 6.42712 5.59998 6.34665 5.59998H5.72475C5.64006 5.59998 5.57141 5.50721 5.57141 5.39998V5.39998C5.57141 5.28952 5.63766 5.19998 5.72762 5.19998H6.03425C6.12052 5.19998 6.19046 5.10721 6.19046 4.99998V4.99998C6.19046 4.88952 6.12421 4.79998 6.03425 4.79998H5.72762C5.64135 4.79998 5.57141 4.71396 5.57141 4.60379V3.39617C5.57141 3.28782 5.63766 3.19998 5.72762 3.19998H6.03425C6.12052 3.19998 6.19046 3.2856 6.19046 3.40186V3.79811C6.19046 3.9096 6.11867 3.99998 6.0357 3.99998V3.99998C5.95022 3.99998 5.88093 4.09276 5.88093 4.19998V4.19998C5.88093 4.31044 5.94718 4.39998 6.03715 4.39998H6.34377C6.43004 4.39998 6.49998 4.30582 6.49998 4.20183V3.39814C6.49998 3.2887 6.57177 3.19998 6.65474 3.19998V3.19998C6.74022 3.19998 6.80951 3.2856 6.80951 3.40186V3.79811C6.80951 3.9096 6.8813 3.99998 6.96427 3.99998V3.99998C7.04974 3.99998 7.11903 3.91437 7.11903 3.79811V3.40186C7.11903 3.29036 7.19082 3.19998 7.27379 3.19998V3.19998C7.35926 3.19998 7.42855 3.2856 7.42855 3.40186V3.79811V3.79811Z" fill="white"/>
</g>
</svg>

<svg width="13" height="12" fill="none" xmlns="http://www.w3.org/2000/svg"><rect width="13" height="12" rx="2" fill="#fff"/><mask id="a" maskUnits="userSpaceOnUse" x="0" y="0" width="13" height="12"><rect width="13" height="12" rx="2" fill="#fff"/></mask><g mask="url(#a)"><path fill="#128C4B" d="M0 0h13v12H0z"/><path fill-rule="evenodd" clip-rule="evenodd" d="M3.095 7.2h4.953v-.463c0-.318.352-.51.619-.337v.8h.704c.295 0 .534.239.534.533 0 .59-.478 1.067-1.067 1.067h-.171a.619.619 0 01-.62-.619V8H4.042a.667.667 0 01-.527-.259l-.42-.541zm0-2.286c0-.074.025-.146.07-.204l.082-.106a.333.333 0 000-.408l-.082-.106a.333.333 0 01-.07-.204V3.51a.31.31 0 01.31-.31h.183c.07 0 .126.056.126.126 0 .14.193.175.244.045l.03-.08a.142.142 0 01.133-.091h.631a.2.2 0 010 .4h-.219a.2.2 0 100 .4h.11a.31.31 0 01.31.31v.98a.31.31 0 01-.619 0v-.335c0-.086.069-.155.154-.155.086 0 .155-.07.155-.155V4.6a.2.2 0 00-.2-.2h-.11a.31.31 0 00-.31.31v.735a.155.155 0 11-.31 0v-.49a.155.155 0 00-.31 0v.49a.152.152 0 01-.153.155.155.155 0 01-.155-.155v-.531zm4.953 0c0-.074.024-.146.07-.204l.081-.106a.333.333 0 000-.408l-.082-.106a.333.333 0 01-.07-.204V3.51c0-.171.14-.31.31-.31h.184c.07 0 .126.056.126.126 0 .14.193.175.243.045l.031-.08a.142.142 0 01.132-.091h.632a.2.2 0 110 .4h-.22a.2.2 0 000 .4h.11a.31.31 0 01.31.31v.98a.31.31 0 01-.619 0v-.335c0-.086.069-.155.154-.155.086 0 .155-.07.155-.155V4.6a.2.2 0 00-.2-.2h-.11a.31.31 0 00-.309.31v.735a.155.155 0 11-.31 0v-.49a.155.155 0 00-.31 0v.49a.155.155 0 11-.31 0v-.531zm-.619-1.116a.649.649 0 01-.112.346l-.086.112a.246.246 0 000 .288l.086.112c.062.08.112.23.112.346v.396c0 .112-.067.202-.157.202h-.306c-.087 0-.156-.086-.156-.202v-.396c0-.112-.03-.128-.072-.016l-.166.428c-.04.103-.145.186-.225.186h-.622c-.085 0-.154-.093-.154-.2 0-.11.067-.2.157-.2h.306c.087 0 .156-.093.156-.2 0-.11-.066-.2-.156-.2h-.306c-.087 0-.157-.086-.157-.196V3.396c0-.108.067-.196.157-.196h.306c.087 0 .156.086.156.202v.396c0 .112-.071.202-.154.202-.086 0-.155.093-.155.2 0 .11.066.2.156.2h.307c.086 0 .156-.094.156-.198v-.804c0-.11.072-.198.155-.198.085 0 .155.086.155.202v.396c0 .112.071.202.154.202.086 0 .155-.086.155-.202v-.396c0-.112.072-.202.155-.202.085 0 .155.086.155.202v.396z" fill="#fff"/></g></svg>
